svg/fluentui-system-icons/ic_fluent_book_24_filled.svg

<svg width="24" height="24" viewBox="0 0 24 24" fill="none" xmlns="http://www.w3.org/2000/svg">
<path d="M6.5 2C5.11929 2 4 3.11929 4 4.5V19.5C4 20.8807 5.11929 22 6.5 22H19.75C20.1642 22 20.5 21.6642 20.5 21.25C20.5 20.8358 20.1642 20.5 19.75 20.5H6.5C5.94772 20.5 5.5 20.0523 5.5 19.5H19.75C20.1642 19.5 20.5 19.1642 20.5 18.75V4.5C20.5 3.11929 19.3807 2 18 2H6.5ZM8 5H16C16.5523 5 17 5.44772 17 6V7C17 7.55228 16.5523 8 16 8H8C7.44772 8 7 7.55228 7 7V6C7 5.44772 7.44772 5 8 5Z" fill="#212121"/>
</svg>

<svg xmlns="http://www.w3.org/2000/svg" width="24" height="24"><path d="M6.5 2A2.5 2.5 0 0 0 4 4.5v15A2.5 2.5 0 0 0 6.5 22h13.25a.75.75 0 0 0 0-1.5H6.5a1 1 0 0 1-1-1h14.25a.75.75 0 0 0 .75-.75V4.5A2.5 2.5 0 0 0 18 2H6.5ZM8 5h8a1 1 0 0 1 1 1v1a1 1 0 0 1-1 1H8a1 1 0 0 1-1-1V6a1 1 0 0 1 1-1Z"/></svg>
